X:24
T:Boys of Malin (reel), The 
B:CRE2.132 (BuachaillÃÂÃÂÃÂÃÂ­ MhÃÂÃÂÃÂÃÂ¡lanna)
F:file ID: cre.2/024boys_m
N:This is usually played in the order 1-2-3-2
L:1/8
M:C
R:reel
Q:180
K:A
ABcd edce|fdfa edcB|ABcd eAce|fdBc dfed|
ABcd edce|fd (3fga edcB|ABcd eAce|fdBc defg||
"9"aA ~A2 eAce|aA ~A2 fefg|aA ~A2 eAce|fdec dcBg|
aA ~A2 eAce|aAAg fefg|afge fdec|dfBc d2cB||
"17"Aece Aece|Aece ~d2 cB|Aece Aece|fdBc dfec|
Aece Aece|Aece ~d2 cB|Aece Aece|fdBc defg||

%%%

